X:1590
T:Polska efter Plunk
T:(SvL Dalarna 1192)
R:Polska
S:Efter Gudmund Tåberg
O:Gärdebyn, Rättvik, Dalarna
B:Svenska Låtar Dalarna, nr 1192
N:Sista G'et ska vara något höjt.
M:3/4
L:1/8
Q:1/4=132
K:Am
|:A>(^c e2) [cA]2|[dD]>f a2 Tg2|(ge) ef {/g}g(e/f/)|d2 [ee]4:|
|:vez/(e/ a2) a2|^fd d[gG] [gG]2|ge ec c[ce]|ed d4|
ed e3 (d|^f)e e2 d2|ec (cB) GB|({/c}B{cB})A [AA,]4:|
(:musicend:)
(:music:)
